packages/icons/src/assets/ia-coin.svg

<svg width="16" height="16" viewBox="0 0 16 16" fill="none" xmlns="http://www.w3.org/2000/svg">
<path d="M8 0C12.3745 0 15.9999 3.31582 16 7.5C16 11.6842 12.3746 15 8 15C3.62547 14.9999 0 11.6842 0 7.5C7.85848e-05 3.31586 3.62552 5.91686e-05 8 0ZM8 1.25293C4.22793 1.25299 1.2491 4.09217 1.24902 7.5C1.24902 10.9079 4.22788 13.747 8 13.7471C11.7722 13.7471 14.751 10.9079 14.751 7.5C14.7509 4.09213 11.7721 1.25293 8 1.25293ZM7.33398 3.91211C7.45388 3.18935 8.50315 3.18935 8.62305 3.91211L8.69922 4.38281L8.70996 4.44043C8.93184 5.64846 9.89888 6.59096 11.127 6.78711L11.6006 6.8623H11.6025C12.3322 6.98108 12.3322 8.02087 11.6025 8.13965H11.6006L11.127 8.21484C9.87941 8.41413 8.90046 9.38351 8.69922 10.6191L8.62305 11.0889L8.58984 11.2178C8.37502 11.8101 7.44636 11.7672 7.33398 11.0898L7.25781 10.6191C7.05653 9.38348 6.07767 8.41405 4.83008 8.21484L4.35645 8.13965H4.35449C3.62507 8.02073 3.62507 6.98122 4.35449 6.8623H4.35645L4.83008 6.78711L4.88867 6.77734C6.10828 6.55758 7.05972 5.5991 7.25781 4.38281L7.33398 3.91211ZM7.97852 5.75684C7.5906 6.5056 6.97374 7.11675 6.21777 7.50098C6.97374 7.8852 7.5906 8.49635 7.97852 9.24512C8.36648 8.49621 8.98409 7.8852 9.74023 7.50098C8.98409 7.11675 8.36648 6.50574 7.97852 5.75684Z" fill="#0A0A0A"/>
</svg>

<svg xmlns="http://www.w3.org/2000/svg" width="16" height="16" viewBox="0 0 16 16"><path d="M8 0c4.374 0 8 3.316 8 7.5S12.375 15 8 15s-8-3.316-8-7.5S3.626 0 8 0m0 1.253c-3.772 0-6.75 2.84-6.751 6.247 0 3.408 2.979 6.247 6.751 6.247s6.751-2.84 6.751-6.247S11.772 1.253 8 1.253m-.666 2.66c.12-.724 1.17-.724 1.289 0l.076.47.011.057a2.92 2.92 0 0 0 2.417 2.347l.474.075h.001c.73.12.73 1.159 0 1.278h-.001l-.474.075a2.92 2.92 0 0 0-2.428 2.404l-.076.47-.033.129c-.215.592-1.144.55-1.256-.128l-.076-.47A2.92 2.92 0 0 0 4.83 8.214l-.474-.075h-.002c-.729-.12-.729-1.159 0-1.278h.002l.474-.075.059-.01a2.92 2.92 0 0 0 2.369-2.394zm.645 1.844A4.05 4.05 0 0 1 6.218 7.5a4.05 4.05 0 0 1 1.76 1.744A4.05 4.05 0 0 1 9.74 7.501a4.05 4.05 0 0 1-1.76-1.744"/></svg>
